icons/svg/airplane-landing.svg

<svg width="24" height="24" viewBox="0 0 24 24" fill="none" xmlns="http://www.w3.org/2000/svg">
<path d="M2.75 20.75H21.25" stroke="currentColor" stroke-width="1.5" stroke-linecap="round" stroke-linejoin="round"/>
<path d="M19.1997 13.2972C20.1511 13.5521 20.7157 14.53 20.4607 15.4814C20.2058 16.4327 19.2279 16.9973 18.2766 16.7424L8.18533 14.0385C7.71058 13.9113 7.26295 13.6987 6.86436 13.4111L4.72569 11.8681C3.89597 11.2695 3.42348 10.2933 3.46876 9.2712L3.57985 6.76302C3.59703 6.37515 3.96874 6.10279 4.34375 6.20327L4.78038 6.32027C5.32125 6.46519 5.73845 6.89606 5.86586 7.44133L6.35222 9.52264C6.40318 9.74075 6.57006 9.9131 6.78641 9.97107L10.8014 11.0469L11.3075 4.31207C11.336 3.93252 11.7026 3.67245 12.0702 3.77096L12.4919 3.88394C12.8552 3.9813 13.1346 4.27214 13.2173 4.63912L14.9094 12.1476L19.1997 13.2972Z" stroke="currentColor" stroke-width="1.5" stroke-linecap="round" stroke-linejoin="round"/>
</svg>

<svg xmlns="http://www.w3.org/2000/svg" width="24" height="24" fill="none" viewBox="0 0 24 24"><path stroke="currentColor" stroke-linecap="round" stroke-linejoin="round" stroke-width="1.5" d="M2.75 20.75h18.5m-2.05-7.453a1.783 1.783 0 1 1-.923 3.445L8.185 14.04a4 4 0 0 1-1.32-.628l-2.14-1.543A3.04 3.04 0 0 1 3.47 9.271l.11-2.508a.607.607 0 0 1 .765-.56l.436.117a1.52 1.52 0 0 1 1.086 1.121l.486 2.082c.051.218.218.39.434.448l4.015 1.076.506-6.735a.607.607 0 0 1 .763-.541l.422.113c.363.097.643.388.725.755l1.692 7.509z"/></svg>
